X: 22555
T: Lady Louisa Gordon's
R: strathspey
M: 4/4
K: Gmajor
|:G|D<G G>A B>A B<G|E<A A>B c3 d|e<g d>B A>G A<B|D<G F>A G3 G|
D<G G>A B>A B<G|E<A A>B c3 d|e<g d>B A>G A<B|D<G F>A G3 d|
g>d g<b g>d g<b|g>d g>b a3 b|g>d d<B g>c' b>a|g<e dB A3 d|
g>d g<b g>d g<b|g>d g>b a3 b|g>d d<B g>c' b>a|g<e dB G3:|

